assets/images/icons/itinerary.svg

<svg width="40" height="40" viewBox="0 0 40 40" fill="none" xmlns="http://www.w3.org/2000/svg">
<g clip-path="url(#clip0_211_3721)">
<path opacity="0.1" d="M0.278944 28.9522C-0.0736318 25.9401 -0.122607 22.9843 0.310078 20.3101C0.84212 17.0218 2.23117 13.3636 3.74867 10.092C6.71454 3.69799 12.0239 1.46106 18.489 0.452582C27.5008 -0.953153 39.9215 0.452613 40 11.3589C39.5479 15.2591 36.5646 26.1018 26.4939 26.9292C23.1642 27.2028 21.9185 30.5473 20.4515 34.3758C16.5911 44.4503 1.56969 39.9794 0.278944 28.9522Z" fill="#7FB51F"/>
<g clip-path="url(#clip1_211_3721)">
<path d="M24.1176 21.6471H28.2353C28.5453 21.6471 28.8415 21.499 29.0275 21.2511C30.557 19.2118 34 14.2982 34 11.7647C34 8.5861 31.414 6 28.2353 6C25.0566 6 22.4706 8.5861 22.4706 11.7647C22.4706 14.0418 25.1957 18.102 26.5345 20H24.1176C21.8471 20 20 21.8472 20 24.1176C20 26.3881 21.8471 28.2353 24.1176 28.2353H25.3529C26.4882 28.2353 27.4118 29.1589 27.4118 30.2941C27.4118 31.4294 26.4882 32.3529 25.3529 32.3529H13.4655C14.8025 30.4576 17.5294 26.3951 17.5294 24.1176C17.5294 20.939 14.9434 18.3529 11.7647 18.3529C8.58605 18.3529 6 20.939 6 24.1176C6 26.6531 9.44823 31.5717 10.9725 33.604C11.1585 33.852 11.4546 34 11.7647 34H25.3529C27.3964 34 29.0588 32.3376 29.0588 30.2941C29.0588 28.2507 27.3964 26.5882 25.3529 26.5882H24.1176C22.7553 26.5882 21.6471 25.48 21.6471 24.1176C21.6471 22.7553 22.7553 21.6471 24.1176 21.6471ZM28.2353 10.1176C29.1435 10.1176 29.8824 10.8565 29.8824 11.7647C29.8824 12.6729 29.1435 13.4118 28.2353 13.4118C27.3271 13.4118 26.5882 12.6729 26.5882 11.7647C26.5882 10.8565 27.3271 10.1176 28.2353 10.1176ZM10.1176 24.1176C10.1176 23.2095 10.8565 22.4706 11.7647 22.4706C12.6729 22.4706 13.4118 23.2095 13.4118 24.1176C13.4118 25.0258 12.6729 25.7647 11.7647 25.7647C10.8565 25.7647 10.1176 25.0258 10.1176 24.1176Z" fill="#7FB51F"/>
</g>
</g>
<defs>
<clipPath id="clip0_211_3721">
<rect width="40" height="40" fill="white"/>
</clipPath>
<clipPath id="clip1_211_3721">
<rect width="28" height="28" fill="white" transform="translate(6 6)"/>
</clipPath>
</defs>
</svg>

<svg xmlns="http://www.w3.org/2000/svg" width="40" height="40" fill="none"><g clip-path="url(#a)"><path fill="#7FB51F" d="M.279 28.952c-.353-3.012-.402-5.968.031-8.642.532-3.288 1.921-6.946 3.439-10.218 2.966-6.394 8.275-8.63 14.74-9.64C27.501-.952 39.922.453 40 11.36c-.452 3.9-3.435 14.743-13.506 15.57-3.33.274-4.575 3.618-6.042 7.447C16.592 44.45 1.57 39.979.279 28.952" opacity=".1"/><g clip-path="url(#b)"><path fill="#7FB51F" d="M24.118 21.647h4.117c.31 0 .607-.148.793-.396C30.557 19.211 34 14.298 34 11.765A5.77 5.77 0 0 0 28.235 6a5.77 5.77 0 0 0-5.764 5.765c0 2.277 2.725 6.337 4.064 8.235h-2.417A4.12 4.12 0 0 0 20 24.118a4.12 4.12 0 0 0 4.118 4.117h1.235c1.135 0 2.059.924 2.059 2.06a2.06 2.06 0 0 1-2.06 2.058H13.467c1.337-1.895 4.063-5.958 4.063-8.235a5.77 5.77 0 0 0-5.764-5.765A5.77 5.77 0 0 0 6 24.118c0 2.535 3.448 7.454 4.973 9.486a1 1 0 0 0 .792.396h13.588a3.71 3.71 0 0 0 3.706-3.706 3.71 3.71 0 0 0-3.706-3.706h-1.235a2.473 2.473 0 0 1-2.47-2.47 2.473 2.473 0 0 1 2.47-2.47m4.117-11.53c.909 0 1.647.74 1.647 1.648s-.739 1.647-1.647 1.647a1.65 1.65 0 0 1-1.647-1.647c0-.909.74-1.647 1.647-1.647m-18.117 14a1.648 1.648 0 0 1 3.294.001 1.65 1.65 0 0 1-1.647 1.647 1.65 1.65 0 0 1-1.647-1.647"/></g></g><defs><clipPath id="a"><path fill="#fff" d="M0 0h40v40H0z"/></clipPath><clipPath id="b"><path fill="#fff" d="M6 6h28v28H6z"/></clipPath></defs></svg>
